!!!ONB: MCCC : IJH0415_04 : Extracted Monophonic Melody
!!!COM: Haydn, Joseph
!!!OPR: String Quartet in C major
!!!OMV: 4
!!!SCT: Hob.III:6 ; Op.1 No.6
!!!ODT: 1757///
**kern
*thru
*k[]
*C:
*clefF
*M3/4
4cc
4ee
4ff#
=1
8ff#
8gg
2dd
=2
8ff
8ee
8aa
8ff
8dd
8cc
=3
2cc
4b
=4
8cc
8gg
4gg
4gg#
=5
12aa
12bb
12ccc
4.ccc
16bb
16aa
=6
4gg
4cc
4b
=7
2cc
4r
=8
4gg
4gg
4gg
=9
8gg
8bb-
4.bb-
16aa
16gg
=10
4ff
4ee
4dd
=11
2dd
4cc#
=12
4a
4b-
4cc#
=13
4cc#
8dd
8ee
8ff
8gg
=14
4aa
4dd
4cc#
=15
2dd
4r
=16
4ff
4ff
4ff
=17
8ff
8ee
12ccc
12bb
12aa
4gg
=18
8gg
8ff
4ff
4ff
=19
8ff
8ee
12ccc
12bb
12aa
4gg
=20
4gg
8.ff
16ee
8.dd
16cc
=21
4g
2r
=22
4cc
4ee
4ff#
=23
8ff#
8gg
2dd
=24
8ff
8ee
8aa
8ff
8dd
8cc
=25
2cc
4b
=26
8cc
8gg
4gg
4gg#
=27
12aa
12bb
12ccc
4.ccc
16bb
16aa
=28
4gg
4cc
4b
=29
2cc
4r
=30
4g
2r
=31
4g
2r
=32
8g
8b
8cc
8ee-
8dd
8cc
=33
2b
4r
=34
2.ff[
=35
8ff]
8aa-
8gg
8ff
8ee-
8dd
=36
4ee-
4cc
4b
=37
4cc
2r
=38
4e-
8g
8e-
8d
8c
=39
4B-
2r
=40
2.r
=41
4e-
8g
8e-
8d
8c
=42
4B-
4gg
4gg
=43
8gg
8ff
8ff
8ee-
4ee-
=44
12cc
12b-
12a-
4g
4f
=45
2e-
4r
=46
2.b-
=47
4b-
8dd-
8b-
8a-
8g
=48
8g
8a-
8cc
8a-
8g
8f
=49
8f#
8g
8b-
8g
8f
8e
=50
8e
8f
8a-
8f
8e-
8d
=51
4e-
8.c
16d
8.e-
16f
=52
4g
8.c
16d
8.e-
16f
=53
4g
4G
4r
=54
4gg
2r
=55
4gg
2r
=56
8gg
8ff#
8gg
8ee-
8dd
8cc
=57
2b
4r
=58
2.ff
=59
8ff
8aa-
8gg
8ff
8ee-
8dd
=60
8ee-
8gg
8ff
8ee-
8dd
8cc
=61
2b
4r
=62
4c
8e-
8c
8B-
8A-
=63
4G
2r
=64
2.r
=65
4c
8e-
8c
8B-
8A-
=66
4G
4ee-
4ee-
=67
8ee-
8dd
8dd
8cc
4cc
=68
12a-
12g
12f
4e-
4d
=69
2c
4r
==
*-
